!!!OTL: Juz czie zegnamy
**kern
*staff1
=1-
*clefF4
*k[b-]
*met(c|)
*M2/2
0F
=2
1C
1F
=3
0BB-
=4
1F
1G
=5
0F
=6
1F
1BB-
=7
0C
=8
0FF;
!!linebreak:original
=9
1F
2D\
2C/
=10
1F
1F
=11
1F
1F
=12
2F\
2F\
1G
=13
0D
!!linebreak:original
=14
1F
1D
=15
1C
1F
=16
0BB-
=17
0F
=18
0F
=19
1C
1F
=20
1.BB-
2C/
=21
2D\
2E\
1F
=22
!!linebreak:original
0C
=23
0FF
=24
1F
1A
=25
1D
1G
=26
0F;
=27
1F
2C/
2F\
=28
1BB-
1BB-
=29
!!linebreak:original
0F
=30
1F
1G
=31
0F
=32
0C
=33
1F
1BB-
=34
0C
=35
0FF;
==
*-
!!title: @{OTL}, @{GTL}, ed. @{ENC}
!!!pag:
!!!GTL: Hymnbook D
!!!EFL: 
!!!YEM: Creative Commons CC/BY/NC/SA 4.0
!!!ENC: Marcin Konik
!!!END: 2015-0m-dd
!!!EED: Marcin Konik
!!!EEV: 
!!!ONB: Encoded in vim by Marcin Konik
!!!CharacterEncoding: utf-8
!!!RDF**kern: l=long note in original notation
!!!RDF**kern: i=editorial accidental
!!muse2ps: z14jc180F
!!!COM: Anonim
!!!CDT: [?]
!!!TXO: Polish
!!!ODT: 
!!!GTL: Hymnbook D
!!!ARL: Opactwo św. Wojciecha, Staniątki 
!!!voices:	1
